X:1
T:A minor Jacob French, 1802
T:Anonymous Author First Published 1759    88. 88. 88.  
T:Dissolution
T:Transcribed from Harmony of Harmony, 1802
%%score [ 1 2 3 ]
L:1/8
Q:1/4=110
M:4/4
K:C
V:1 treble nm="Treble" snm="Tr."
V:2 treble-8 nm="Tenor" snm="T."
V:3 bass nm="Bass" snm="B."
V:1
"^3.  The prayer  is  sealed, the soul     is          fled,         And  sees   her    Sa –vior face to    face;""^2. Her  ear –  ly,    short-lived ex  –   cel   –   lence        With meek sub–mis–sion we   be – moan,""^1. And  is      the       love–ly   sha –  dow       fled?        The  blooming    wonder  of    her  years," A4 c2 c>d | %1
 e2 e2 e2 B2 | c2 B2 A>B c2 | d2 e2 f2 e2 | e6 z2 | z8 | %6
 z4 z2"^1. So    soon enshrined a–mong the dead, She justly claims our pi   –   ous       tears.                                                           Who,""^2. Snatched in a  fa  –  tal moment hence, Gone from our arms, to Je – sus       gone,                                                              To""^3. But  still  she  speaks to us, though dead; She calls us to that heav'n– ly       place,                                                          Where" cd | %7
 e2 e2 ed cB | [Ac]2 [Ac]2 [Ac]2 [^Ge]2 | e2 d2 c2 G2 | (A2 B2) (c2 d2) | e6 z2 | z8 | z4 z2 E2 | %14
"^1. new to    heav'nly  spirits joined, Hath  left  our wretched world behind, Hath left our wretched world      be   –  hind.""^2. heighten  by   her swift re–move The   grief below,  and     joy   above,  The   grief below and   joy _______     a    –   bove.""^3. all   the storms of   life  are  o'er,  And   pain and parting   are no more,  And  pain and parting are ______     no     more." A2 B2 c2 d2 | %15
 e2 d2 c2 BA | ^G2 A2 B2 cd | e3 e e2 AB | c2 d2 e2 d2 | cedc B4 | A8 |] %21
V:2
"^1. And  is      the       love–ly   sha –  dow       fled?        The  blooming    wonder  of    her  years,                                                So""^2. Her  ear –  ly,    short-lived ex  –   cel   –   lence        With meek sub–mis–sion we   be – moan,                                           Snatched""^3.  The prayer  is  sealed, the soul     is          fled,         And  sees   her    Sa –vior face to    face;                                                  But" E4 A2 A2 | %1
 B2 c2 BA GF | E2 E2 c>d e2 | f2 e2 d2 c2 | B6 z2 | z4 z2 cd | %6
"^1. soon enshrined a–mong the dead, ___________             She  justly claims our  pi    –   ous        tears.                               Who, new to heav'nly""^2. in   a     fa  –  tal     moment  hence, __________            Gone from our arms, to Je   –    sus        gone,                               To   heighten by her""^3. still she speaks to  us, though dead; _________             She   calls  us  to  that  heav'n – ly        place,                           Where all the storms of" e2 e2 ed cB | %7
 A2 A2 A4- | A6 B2 | c2 d2 e2 d2 | (c2 B2) A4 | B6 z2 | z4 z2 E2 | A2 B2 c2 B2 | %14
"^1. spirits joined, Hath left our wretched   world     be    –     hind,              Hath  left our wretched world        be  –   hind.""^2. swift re–move The grief below, and       joy          a      –     bove,              The  grief below  and    joy               a   –   bove.""^3. life  are   o'er,  And pain and parting     are         no            more,             And  pain and parting   are             no      more." A2 ^G2 A2 B2 | %15
 c2 d2 e2 d2 | c4 (B2 A2) | B6 cd | e2 d2 c2 B2 | A4 ^G4 | A8 |] %21
V:3
 A,,4 A,,2 A,,2 | E,2 E,2 E,2 E,>D, | C,>D, E,2 F,2 E,2 | D,2 C,2 B,,2 A,,2 | %4
 E,6"^1.  So     soon en–shrined  a  –""^2.  Snatched in  a    fa   –   tal""^3.  But    still  she  speaks  to" C,D, | %5
 E,2 E,2 E,D, C,B,, | %6
"^1. –mong the dead, ________________________________                 She  justly claims our pi    –   ous    tears.  Who, new to heav'nly  spirits joined, Hath""^2.  moment hence,  ________________________________                Gone from our arms, to Je   –  sus     gone,      To   heighten by her  swift remove The""^3.  us, though dead;  ______________________________                  She  calls  us to that  heav'n – ly     place,   Where all the storms of life are o'er, And" A,,2 A,,2 A,,4- | %7
 A,,8- | A,,6 E,2 | A,2 B,2 C2 B,2 | (A,2 G,2) F,4 | E,6 E,2 | A,2 B,2 C2 B,2 | A,2 ^G,2 A,2 E,2 | %14
"^1. left  our  wretched   world     be     –     hind, _______________________              Hath  left our wretched world        be  –   hind.""^2.  grief be – low, and   joy          a       –      bove,  _____________________                The  grief below  and     joy             a   –   bove.""^3. pain and  parting     are         no             more,  _____________________                And pain and parting    are            no      more." F,2 E,D, C,2 B,,2 | %15
 (A,,2 B,,2) (C,2 D,2) | E,8- | E,6 E,D, | C,2 B,,2 A,,2 B,,2 | (C,2 D,2) E,4 | A,,8 |] %21

